X: 2361
T: Bailiff Arriving In Town, The
R: polka
M: 2/4
K: Gmajor
|:B>A GD|E>F GA|B>A GD|EA A2|
B>A GD|EF GB|d>e dB|AG G2:|
|:B>A Bd|ed ef|gd Bd|gd BA|
[1 B>A Bd|ed ef|gd BA|BG G2:|
[2 B>A GD|E>F GB|d>e dB|AG G2||

